X:351
T:Reel 351
M:4/4
K:Gmaj
L:1/8
G>B (3BAB cBAG|F>A (3DEF ABcA|GBBB GBdB|ADEF G2G2:|d>g (3gfg a>g (3gfg |d>g (3gfg a2ga|b>g (3gfg b>g (3gfg |dcBc A2Bc|d>g (3gfg b>g (3gfg |d>g (3gfg a2ga|bgaf gfed| (3efg dc BGG2|
